X: 243
T: Song Concerning Fierce Face
C: Teton Sioux band 1911-1914
N: Derived from sioux238.krn
O: South Dakota, U.S.A.
N: Teton Sioux Music by Frances Densmore, 1918
Z: transcribed to **kern format by Craig Sapp
L: 1/8
M: 3/4
Q: 1/4=58
K: A clef=bass
%%linebreak <none>
F,< F, F F F E3// F// [I:setbarnb 2]| 
F> CC2C B,3// C// | 
C CA,2A, F,/ F,/ | 
B,/> C/ B,B,2B, A, | 
B,< A, A,/ F,/ F, F, F, ||  
[M:2/4]F,4 | 
F,4 ||  
[M:3/4]F,< F, C C C B, | 
C< C (C/ A,/) A, (A, F,3//) F,// | 
B, B,B,2B, A, | 
B,< A, (A,/ F,/) F, F, F, | 
F,4F,2 |]  



